X:1
T:Have You Heard the Sobbing?
T:Have You Heard the Sobbing?
T:Haldor Lillenas
T:Haldor Lillenas, 1923
T:Public Domain Courtesy of the Cyber Hymnal™
T:Public Domain Courtesy of the Cyber Hymnal™
C:Haldor Lillenas
Z:Public Domain
Z:Courtesy of the Cyber Hymnal™
%%score ( 1 2 ) ( 3 4 )
L:1/8
Q:1/4=100
M:4/4
K:Ab
V:1 treble 
V:2 treble 
V:3 bass 
V:4 bass 
V:1
 [CE]>[CE] | [CA]>[DG] [EA]>[EB] [Ec]>[EB] [EA]>[EG] | [DF]2 [DA]2 [CE]2 [CE]2 | %3
w: 1.~Have you|heard the sob- bing of a thou- sand|mil- lion souls, Sub-|
w: 2.~Have you|heard the sob- bing of a thou- sand|mil- lion souls, By|
w: 3.~Can you|hear the sob- bing of a thou- sand|mil- lion souls, Who|
 [CA]>[CA] [EA]>[EA] [=Dc]2 [DA]2 | [DB]6 [DE]>[DE] | [CA]>[DG] [EA]>[EB] [Ec]>[EB] [EA]>[EG] | %6
w: merged in dark- est hea- then|night? Vain- ly|grop- ing for the way that leads to|
w: su- per- sti- tious chains en-|slaved? Can you|long- er be in- dif- ferent to their|
w: seek re- lief of heart in|vain? Let them|have the bless- èd Gos- pel that can|
 [DF]2 [DA]2 [CE]2 [Fd]2 | [Ec]>[Ec] [CE]>[CA] [Ec]2 [DB]2 | [CA]6 ||"^Refrain" [_GA]2 | %10
w: hope and peace, They|plead and wait the Gos- pel|light.||
w: sad es- tate? Thro’|Je- sus they can all be|saved.|A|
w: free- dom give, And|rend the chains of sin in|twain.||
 [Fd]>[Fd] [Fd]>[Fd] [Fe]2 [Fd]2 | d4 [Ec]2 [Ac]2 | [GB]>[GB] [FB]>[Ac] [GB]>[EG] [=DG]>[DA] | %13
w: |||
w: thou- sand mil- lion souls are|dy- ing, A|thou- sand mil- lion souls for whom the|
w: |||
 [EG]2 [=DF]2 !fermata!E2 [_DE]>[DE] | [CA]>[DG] [EA]>[EB] !fermata![Ec]2 [=D=B]>[Ec] | %15
w: ||
w: Sav- ior died. Can you|still de- ny their plea? Can you|
w: ||
 [Fe]>[Fd] [FA]>[FB] !fermata![=Ec]2 !fermata![Fd][_Ec] | [=DB]>[DF] [DG]>[DA] [Ee]2 [Ec]2 | %17
w: ||
w: long- er i- dle be, While a|thou- sand mil- lion souls are|
w: ||
 [DB]4 [CA]2 |] %18
w: |
w: dy- ing?|
w: |
V:2
 x2 | x8 | x8 | x8 | x8 | x8 | x8 | x8 | x6 || x2 | x8 | (F2 F2) x4 | x8 | x4 E2 x2 | x8 | x8 | %16
 x8 | x6 |] %18
V:3
 [A,,A,]>[A,,A,] | [A,,E,]>[B,,E,] [B,,A,]>[E,G,] A,>[A,D] [A,C]>[C,A,] | [D,A,]2 [F,A,]2 A,2 A,2 | %3
 [A,,E,]>[A,,E,] [C,A,]>[C,A,] [B,,A,]2 [B,,F,]2 | [E,G,]6 [E,G,]>[E,G,] | %5
 [A,,E,]>[B,,E,] [C,A,]>[E,G,] A,>[A,D] [A,C]>[C,A,] | [D,A,]2 [F,A,]2 A,2 [D,A,]2 | %7
 [E,A,]>[E,A,] [E,A,]>[E,A,] [E,A,]2 [E,G,]2 | [A,,A,]6 || A,2 | %10
 [D,A,]>[D,A,] [D,A,]>[D,A,] [D,A,]2 [D,A,]2 | [A,,A,]4 [A,,A,]2 [A,E]2 | %12
 [B,E]>[B,E] [B,=D]>[B,D] [B,E]>B, [B,,B,]>[B,,C] | %13
 [B,,B,]2 [B,,A,]2 !fermata![E,G,]2 [E,G,]>[E,G,] | %14
 [A,,E,]>[B,,E,] [C,A,]>[E,G,] !fermata!A,2 A,>A, | %15
 [D,A,]>[D,A,] [D,A,]>[D,F,] !fermata![C,G,]2 !fermata![F,=A,][F,A,] | %16
 [B,,B,]>[B,,A,] [B,,G,]>[B,,F,] [C,A,]2 [E,A,]2 | [E,G,]4 !fermata![A,,E,]2 |] %18
V:4
 x2 | x4 A,3/2 x5/2 | x4 A,2 A,2 | x8 | x8 | x4 A,3/2 x5/2 | x4 A,2 x2 | x8 | x6 || A,2 | x8 | x8 | %12
 x11/2 B,/ x2 | x8 | x4 A,2 A,>A, | x8 | x8 | x6 |] %18

